X:63
T: FRIDERICUS REX UNSER KOENIG UND HERR
N: B0084
O: Europa, Mitteleuropa, Deutschland
R: Helden -, Ehren -, Gedaechtnis -, Kriegs - Lied
M: 4/4
L: 1/16
K: Bb
F3F | B4B4B4d2d2 | c3BA2G2F6
F2 | F4c2c2c2c2f2e2 | d4c3cB4
f4 | d3dd2d2d3fe2d2 | c3BA2B2c4
B2c2 | d3dd2d2f3ed2c2 | d4c3cB4
f4 | d3dd2d2d3fe2d2 | c3BA2B2c4
B2c2 | d3dd2d2f3ed2c2 | d4c3cB4

@@@ Tune index: 1866
